src/lib/packages/icons/src/assets/filled/sticky-note-circle-frown.svg

<svg width="24" height="24" viewBox="0 0 24 24" fill="none" xmlns="http://www.w3.org/2000/svg">
<path d="M21.0499 15.75C20.8199 16.11 20.5499 16.45 20.2399 16.76L16.75 20.25C16.44 20.56 16.0999 20.82 15.7399 21.0599V19.01C15.7399 17.22 17.1999 15.76 18.9899 15.76H21.04L21.0499 15.75ZM14.25 21.7399C13.69 21.9099 13.11 22 12.51 22H12C6.37996 22 1.84996 17.37 1.99996 11.72C2.13996 6.49995 6.48995 2.14996 11.71 2.00996C17.36 1.84996 21.9899 6.38996 21.9899 12.01V12.5199C21.9899 13.1099 21.9 13.7 21.73 14.26H18.9899C16.3699 14.26 14.2399 16.39 14.2399 19.01V21.75L14.25 21.7399ZM13.76 9.99995C13.76 10.69 14.33 11.25 15.01 11.25C15.69 11.25 16.26 10.69 16.26 9.99995C16.26 9.30995 15.7 8.74995 15.01 8.74995C14.32 8.74995 13.76 9.30995 13.76 9.99995ZM9.00997 11.25C9.69997 11.25 10.26 10.69 10.26 9.99995C10.26 9.30995 9.69997 8.74995 9.00997 8.74995C8.31997 8.74995 7.75997 9.30995 7.75997 9.99995C7.75997 10.69 8.32997 11.25 9.00997 11.25ZM13.67 15.67C14.04 15.85 14.49 15.69 14.67 15.32C14.85 14.95 14.69 14.5 14.32 14.32C12.83 13.61 11.1 13.6299 9.65996 14.3399C9.28996 14.5199 9.13997 14.97 9.31997 15.35C9.44997 15.61 9.71995 15.7699 9.98995 15.7699C10.0999 15.7699 10.22 15.75 10.32 15.69C11.34 15.18 12.59 15.17 13.66 15.69L13.67 15.67Z" fill="currentColor"/>
</svg>

<svg xmlns="http://www.w3.org/2000/svg" width="24" height="24" fill="none"><path fill="currentColor" d="M21.05 15.75c-.23.36-.5.7-.81 1.01l-3.49 3.49c-.31.31-.65.57-1.01.81v-2.05c0-1.79 1.46-3.25 3.25-3.25h2.05l.01-.01Zm-6.8 5.99c-.56.17-1.14.26-1.74.26H12C6.38 22 1.85 17.37 2 11.72c.14-5.22 4.49-9.57 9.71-9.71 5.65-.16 10.28 4.38 10.28 10v.51c0 .59-.09 1.18-.26 1.74h-2.74c-2.62 0-4.75 2.13-4.75 4.75v2.74l.01-.01ZM13.76 10c0 .69.57 1.25 1.25 1.25s1.25-.56 1.25-1.25a1.25 1.25 0 0 0-2.5 0Zm-4.75 1.25A1.25 1.25 0 1 0 7.76 10c0 .69.57 1.25 1.25 1.25Zm4.66 4.42c.37.18.82.02 1-.35.18-.37.02-.82-.35-1a5.363 5.363 0 0 0-4.66.02c-.37.18-.52.63-.34 1.01.13.26.4.42.67.42.11 0 .23-.02.33-.08 1.02-.51 2.27-.52 3.34 0l.01-.02Z"/></svg>
